src/lib/packages/icons/src/assets/line/shopping-basket-star.svg

<svg width="24" height="24" viewBox="0 0 24 24" fill="none" xmlns="http://www.w3.org/2000/svg">
<path d="M21.75 9C21.75 7.483 20.517 6.25 19 6.25H16.936L14.774 2.616C14.562 2.262 14.102 2.142 13.746 2.355C13.391 2.567 13.273 3.027 13.485 3.383L15.1899 6.24899H9.03894L10.77 3.387C10.985 3.033 10.871 2.572 10.517 2.357C10.16 2.142 9.70106 2.256 9.48706 2.61L7.28601 6.248H5C3.483 6.248 2.25 7.481 2.25 8.998C2.25 10.087 2.89101 11.022 3.81201 11.467L4.50195 18.371C4.72895 20.643 5.94903 21.748 8.23303 21.748H15.803C18.087 21.748 19.3081 20.644 19.5341 18.371L20.226 11.446C21.126 10.995 21.75 10.073 21.75 9ZM5 7.75H19C19.689 7.75 20.25 8.311 20.25 9C20.25 9.689 19.689 10.25 19 10.25H5C4.311 10.25 3.75 9.689 3.75 9C3.75 8.311 4.311 7.75 5 7.75ZM18.043 18.224C17.914 19.507 17.507 20.25 15.804 20.25H8.23401C6.52201 20.25 6.127 19.538 5.995 18.224L5.34802 11.75H18.691L18.043 18.224ZM14.821 14.16L13.543 13.975L12.993 12.866C12.805 12.486 12.425 12.25 12 12.25C11.575 12.25 11.1951 12.486 11.0081 12.865L10.457 13.975L9.17896 14.16C8.76795 14.22 8.43195 14.502 8.30396 14.898C8.17495 15.293 8.28098 15.719 8.57898 16.008L9.50195 16.904L9.29199 18.119C9.21999 18.537 9.38798 18.952 9.72998 19.202C10.075 19.453 10.5219 19.486 10.8979 19.289L12.001 18.712L13.104 19.289C13.268 19.375 13.444 19.417 13.62 19.417C13.849 19.417 14.077 19.345 14.272 19.203C14.615 18.953 14.782 18.538 14.71 18.122L14.5 16.904L15.423 16.008C15.722 15.718 15.827 15.293 15.698 14.898C15.568 14.502 15.232 14.22 14.821 14.16ZM13.297 15.98C13.039 16.229 12.922 16.588 12.983 16.941L13.095 17.591L12.501 17.28C12.189 17.117 11.8129 17.117 11.4969 17.281L10.905 17.591L11.017 16.941C11.078 16.588 10.96 16.229 10.704 15.981L10.2321 15.523L10.887 15.428C11.24 15.377 11.544 15.157 11.703 14.837L11.999 14.24L12.295 14.837C12.454 15.156 12.759 15.377 13.111 15.427L13.766 15.522L13.297 15.98Z" fill="currentColor"/>
</svg>

<svg xmlns="http://www.w3.org/2000/svg" width="24" height="24" fill="none"><path fill="currentColor" d="M21.75 9A2.752 2.752 0 0 0 19 6.25h-2.064l-2.162-3.634a.75.75 0 0 0-1.289.767l1.705 2.866H9.039l1.731-2.862a.75.75 0 0 0-1.283-.777L7.286 6.248H5a2.752 2.752 0 0 0-2.75 2.75c0 1.089.641 2.024 1.562 2.469l.69 6.904c.227 2.272 1.447 3.377 3.731 3.377h7.57c2.284 0 3.505-1.104 3.731-3.377l.692-6.925A2.738 2.738 0 0 0 21.75 9ZM5 7.75h14c.689 0 1.25.561 1.25 1.25s-.561 1.25-1.25 1.25H5c-.689 0-1.25-.561-1.25-1.25S4.311 7.75 5 7.75Zm13.043 10.474c-.129 1.283-.536 2.026-2.239 2.026h-7.57c-1.712 0-2.107-.712-2.239-2.026l-.647-6.474h13.343l-.648 6.474Zm-3.222-4.064-1.278-.185-.55-1.109A1.1 1.1 0 0 0 12 12.25c-.425 0-.805.236-.992.615l-.551 1.11-1.278.185c-.411.06-.747.342-.875.738-.129.395-.023.821.275 1.11l.923.896-.21 1.215c-.072.418.096.833.438 1.083.345.251.792.284 1.168.087L12 18.712l1.103.577a1.107 1.107 0 0 0 1.606-1.167l-.21-1.218.923-.896a1.082 1.082 0 0 0-.602-1.848Zm-1.524 1.82a1.078 1.078 0 0 0-.314.961l.112.65-.594-.311a1.09 1.09 0 0 0-1.004.001l-.592.31.112-.65a1.08 1.08 0 0 0-.313-.96l-.472-.458.655-.095c.353-.051.657-.271.816-.591l.296-.597.296.597c.159.319.464.54.816.59l.655.095-.469.458Z"/></svg>
